svgs/sharp-solid/chalkboard-user.svg

<svg xmlns="http://www.w3.org/2000/svg" viewBox="0 0 640 512"><!--! Font Awesome Pro 6.6.0 by @fontawesome - https://fontawesome.com License - https://fontawesome.com/license (Commercial License) Copyright 2024 Fonticons, Inc. --><path d="M192 0L160 0l0 32 0 64c23.3 0 45.2 6.2 64 17.1L224 64l352 0 0 288-64 0 0-64-128 0 0 64-78.6 0 19.2 64L608 416l32 0 0-32 0-352 0-32L608 0 192 0zM160 320a96 96 0 1 0 0-192 96 96 0 1 0 0 192zM320 512L272 352 48 352 0 512l320 0z"/></svg>

<svg xmlns="http://www.w3.org/2000/svg" viewBox="0 0 640 512"><!--! Font Awesome Pro 6.4.0 by @fontawesome - https://fontawesome.com License - https://fontawesome.com/license (Commercial License) Copyright 2023 Fonticons, Inc. --><path d="M192 0H160V32 96c23.3 0 45.2 6.2 64 17.1V64H576V352H512V288H384v64H305.4l19.2 64H608h32V384 32 0H608 192zM160 320a96 96 0 1 0 0-192 96 96 0 1 0 0 192zM320 512L272 352H48L0 512H320z"/></svg>
